assets/svg/icon_channel_description.svg

<svg width="24" height="24" viewBox="0 0 24 24" fill="none" xmlns="http://www.w3.org/2000/svg">
<g id="icon/channel_description">
<path id="Vector" fill-rule="evenodd" clip-rule="evenodd" d="M15.8871 4.6496C15.789 3.72241 15.0045 3 14.0513 3H9.94872C8.99553 3 8.21103 3.72241 8.1129 4.6496C7.48677 4.66235 6.94539 4.69474 6.4832 4.77965C5.86125 4.89389 5.33194 5.11152 4.90117 5.54224C4.4073 6.03612 4.19487 6.65796 4.09559 7.39651C4 8.10787 4 9.01234 4 10.1345V15.1476C4 16.2697 4 17.1742 4.09559 17.8856C4.19487 18.6241 4.4073 19.2459 4.90117 19.7399C5.39512 20.2337 6.0169 20.4462 6.75545 20.5454C7.46683 20.641 8.37128 20.641 9.49341 20.641H14.5066C15.6287 20.641 16.5332 20.641 17.2445 20.5454C17.9831 20.4462 18.6049 20.2337 19.0988 19.7399C19.5927 19.2459 19.8051 18.6241 19.9044 17.8856C20 17.1742 20 16.2697 20 15.1476V10.1345C20 9.01234 20 8.10787 19.9044 7.39651C19.8051 6.65796 19.5927 6.03612 19.0988 5.54224C18.6681 5.11152 18.1388 4.89389 17.5168 4.77965C17.0546 4.69474 16.5132 4.66235 15.8871 4.6496ZM15.8852 5.88071C16.4744 5.89329 16.9285 5.92295 17.2945 5.99016C17.7596 6.07559 18.0288 6.21277 18.2285 6.41252C18.4556 6.63961 18.6037 6.95844 18.6846 7.56051C18.7679 8.18028 18.7692 9.00171 18.7692 10.1795V15.1026C18.7692 16.2803 18.7679 17.1017 18.6846 17.7216C18.6037 18.3236 18.4556 18.6424 18.2285 18.8695C18.0014 19.0967 17.6826 19.2447 17.0805 19.3257C16.4607 19.4089 15.6393 19.4103 14.4615 19.4103H9.53846C8.3607 19.4103 7.53928 19.4089 6.91947 19.3257C6.31737 19.2447 5.99861 19.0967 5.77149 18.8695C5.54437 18.6424 5.39635 18.3236 5.31536 17.7216C5.23208 17.1017 5.23077 16.2803 5.23077 15.1026V10.1795C5.23077 9.00171 5.23208 8.18028 5.31536 7.56051C5.39635 6.95843 5.54437 6.63961 5.77149 6.41252C5.97128 6.21277 6.24041 6.07559 6.70548 5.99016C7.07151 5.92295 7.52558 5.89329 8.11487 5.88071C8.22088 6.79948 9.00152 7.51282 9.94872 7.51282H14.0513C14.9985 7.51282 15.7791 6.79948 15.8852 5.88071ZM14.0513 4.23077C14.3911 4.23077 14.6667 4.50629 14.6667 4.84615V5.66667C14.6667 6.00653 14.3911 6.28205 14.0513 6.28205H9.94872C9.60886 6.28205 9.33333 6.00653 9.33333 5.66667V4.84615C9.33333 4.50629 9.60886 4.23077 9.94872 4.23077H14.0513ZM16.7179 10.5897C16.7179 10.2499 16.4424 9.97436 16.1026 9.97436H7.89744C7.55758 9.97436 7.28205 10.2499 7.28205 10.5897C7.28205 10.9296 7.55758 11.2051 7.89744 11.2051H16.1026C16.4424 11.2051 16.7179 10.9296 16.7179 10.5897ZM15.8974 13.4615C15.8974 13.1217 15.6219 12.8462 15.2821 12.8462H8.71795C8.37809 12.8462 8.10256 13.1217 8.10256 13.4615C8.10256 13.8014 8.37809 14.0769 8.71795 14.0769H15.2821C15.6219 14.0769 15.8974 13.8014 15.8974 13.4615ZM15.0769 16.3333C15.0769 15.9935 14.8014 15.7179 14.4615 15.7179H9.53846C9.1986 15.7179 8.92308 15.9935 8.92308 16.3333C8.92308 16.6732 9.1986 16.9487 9.53846 16.9487H14.4615C14.8014 16.9487 15.0769 16.6732 15.0769 16.3333Z" fill="#494949"/>
</g>
</svg>

<svg xmlns="http://www.w3.org/2000/svg" width="24" height="24" fill="none"><path fill="#494949" fill-rule="evenodd" d="M15.887 4.65A1.846 1.846 0 0 0 14.051 3H9.95c-.953 0-1.738.722-1.836 1.65-.626.012-1.168.045-1.63.13-.622.114-1.151.332-1.582.762-.494.494-.706 1.116-.805 1.855C4 8.107 4 9.012 4 10.134v5.014c0 1.122 0 2.026.096 2.738.099.738.311 1.36.805 1.854s1.116.706 1.854.805c.712.096 1.616.096 2.738.096h5.014c1.122 0 2.026 0 2.737-.096.74-.099 1.36-.311 1.855-.805s.706-1.116.805-1.854C20 17.174 20 16.27 20 15.148v-5.014c0-1.122 0-2.026-.096-2.737-.099-.739-.311-1.36-.805-1.855-.43-.43-.96-.648-1.582-.762-.462-.085-1.004-.118-1.63-.13m-.002 1.23c.59.013 1.043.043 1.41.11.465.086.734.223.933.423.228.227.376.545.457 1.148.083.62.084 1.44.084 2.619v4.923c0 1.177-.001 1.999-.084 2.619-.081.602-.23.92-.456 1.147-.228.228-.546.376-1.148.457-.62.083-1.442.084-2.62.084H9.539c-1.177 0-1.999-.001-2.619-.084-.602-.081-.92-.23-1.148-.457s-.375-.545-.456-1.147c-.083-.62-.084-1.442-.084-2.62V10.18c0-1.178.001-2 .084-2.62.081-.602.23-.92.456-1.147.2-.2.47-.337.934-.423.367-.067.82-.097 1.41-.11a1.846 1.846 0 0 0 1.834 1.633h4.102c.947 0 1.728-.714 1.834-1.632m-1.834-1.65c.34 0 .616.276.616.616v.82c0 .34-.276.616-.616.616H9.95a.615.615 0 0 1-.616-.615v-.82c0-.34.276-.616.616-.616zm2.667 6.36a.615.615 0 0 0-.615-.616H7.897a.615.615 0 0 0 0 1.231h8.206c.34 0 .615-.275.615-.615m-.82 2.871a.615.615 0 0 0-.616-.615H8.718a.615.615 0 1 0 0 1.23h6.564c.34 0 .615-.275.615-.615m-.821 2.872a.615.615 0 0 0-.616-.615H9.539a.615.615 0 0 0 0 1.23h4.923c.34 0 .616-.275.616-.615" clip-rule="evenodd"/></svg>
